assets/svg/balance-o.svg

<?xml version="1.0" encoding="UTF-8"?>
<svg width="1000px" height="1000px" viewBox="0 0 1000 1000" version="1.1" xmlns="http://www.w3.org/2000/svg" xmlns:xlink="http://www.w3.org/1999/xlink">
    <!-- Generator: sketchtool 52.4 (67378) - http://www.bohemiancoding.com/sketch -->
    <title>balance-o</title>
    <desc>Created with sketchtool.</desc>
    <g id="新版图标" stroke="none" stroke-width="1" fill="none" fill-rule="evenodd">
        <g id="balance-o" fill="#323233">
            <g id="圆角-会员余额-线">
                <path d="M771.735356,831.444444 C740.790911,867.944444 695.6798,888.888889 647.846467,888.888889 L384.6798,888.888889 C336.846467,888.888889 291.6798,867.944444 260.790911,831.444444 C229.846467,794.944444 216.624245,746.944444 224.457578,699.777778 L247.568689,560.944444 C269.568689,429.055556 382.568689,333.333333 516.235356,333.333333 C649.957578,333.333333 762.957578,429.055556 784.902022,560.944444 L808.013134,699.777778 C815.902022,746.944444 802.6798,794.944444 771.735356,831.444444 Z M482.624245,277.777778 C427.402022,277.777778 379.402022,237.444444 368.402022,181.888889 C367.346467,176.388889 369.6798,172.611111 371.124245,170.777778 C372.6798,168.888889 375.402022,166.666667 379.513134,166.666667 L652.957578,166.666667 C657.124245,166.666667 659.790911,168.888889 661.402022,170.777778 C662.846467,172.611111 665.1798,176.388889 664.124245,181.888889 C653.124245,237.444444 605.124245,277.777778 549.902022,277.777778 L482.624245,277.777778 Z M862.846467,690.611111 L839.735356,551.777778 C820.790911,438.166667 744.346467,347.111111 643.513134,304.5 C681.1798,279.444444 709.235356,240.111111 718.624245,192.611111 C726.846467,150.444444 695.1798,111.111111 652.957578,111.111111 L379.513134,111.111111 C337.346467,111.111111 305.624245,150.444444 313.902022,192.611111 C323.290911,240.111111 351.346467,279.444444 388.957578,304.5 C288.235356,347.111111 211.735356,438.166667 192.790911,551.777778 L169.6798,690.611111 C147.568689,823.444444 249.957578,944.444444 384.6798,944.444444 L647.846467,944.444444 C782.513134,944.444444 884.957578,823.444444 862.846467,690.611111 Z M585.702022,638.9 C601.035356,638.9 613.4798,626.455556 613.4798,611.122222 C613.4798,595.788889 601.035356,583.344444 585.702022,583.344444 L564.368689,583.344444 L593.813134,553.9 C604.702022,543.011111 604.702022,525.455556 593.813134,514.622222 C582.9798,503.733333 565.424245,503.733333 554.535356,514.622222 L516.257578,552.9 L477.9798,514.622222 C467.090911,503.733333 449.535356,503.733333 438.702022,514.622222 C427.813134,525.455556 427.813134,543.011111 438.702022,553.9 L468.146467,583.344444 L446.813134,583.344444 C431.4798,583.344444 419.035356,595.788889 419.035356,611.122222 C419.035356,626.455556 431.4798,638.9 446.813134,638.9 L488.4798,638.9 L488.4798,666.677778 L446.813134,666.677778 C431.4798,666.677778 419.035356,679.122222 419.035356,694.455556 C419.035356,709.788889 431.4798,722.233333 446.813134,722.233333 L488.4798,722.233333 L488.4798,750.011111 C488.4798,765.344444 500.924245,777.788889 516.257578,777.788889 C531.590911,777.788889 544.035356,765.344444 544.035356,750.011111 L544.035356,722.233333 L585.702022,722.233333 C601.035356,722.233333 613.4798,709.788889 613.4798,694.455556 C613.4798,679.122222 601.035356,666.677778 585.702022,666.677778 L544.035356,666.677778 L544.035356,638.9 L585.702022,638.9 Z" id="Fill-1"></path>
            </g>
        </g>
    </g>
</svg>

<svg width="1000" height="1000" xmlns="http://www.w3.org/2000/svg"><path d="M771.735 831.444c-30.944 36.5-76.055 57.445-123.889 57.445H384.68c-47.834 0-93-20.945-123.89-57.445-30.944-36.5-44.166-84.5-36.332-131.666l23.11-138.834c22-131.888 135-227.61 268.667-227.61 133.723 0 246.723 95.722 268.667 227.61l23.111 138.834c7.889 47.166-5.333 95.166-36.278 131.666zm-289.11-553.666c-55.223 0-103.223-40.334-114.223-95.89-1.056-5.5 1.278-9.277 2.722-11.11 1.556-1.89 4.278-4.111 8.39-4.111h273.444c4.166 0 6.833 2.222 8.444 4.11 1.444 1.834 3.778 5.612 2.722 11.112-11 55.555-59 95.889-114.222 95.889h-67.278zM862.845 690.61l-23.11-138.833C820.79 438.167 744.345 347.11 643.512 304.5c37.667-25.056 65.722-64.389 75.111-111.889 8.222-42.167-23.444-81.5-65.666-81.5H379.513c-42.167 0-73.889 39.333-65.611 81.5 9.389 47.5 37.444 86.833 75.056 111.889-100.723 42.611-177.223 133.667-196.167 247.278L169.68 690.61c-22.111 132.833 80.278 253.833 215 253.833h263.166c134.667 0 237.112-121 215-253.833zM585.702 638.9c15.333 0 27.778-12.444 27.778-27.778 0-15.333-12.445-27.778-27.778-27.778h-21.333l29.444-29.444c10.889-10.889 10.889-28.444 0-39.278-10.833-10.889-28.389-10.889-39.278 0L516.258 552.9l-38.278-38.278c-10.89-10.889-28.445-10.889-39.278 0-10.889 10.834-10.889 28.39 0 39.278l29.444 29.444h-21.333c-15.333 0-27.778 12.445-27.778 27.778 0 15.334 12.445 27.778 27.778 27.778h41.667v27.778h-41.667c-15.333 0-27.778 12.444-27.778 27.778 0 15.333 12.445 27.777 27.778 27.777h41.667v27.778c0 15.333 12.444 27.778 27.778 27.778 15.333 0 27.777-12.445 27.777-27.778v-27.778h41.667c15.333 0 27.778-12.444 27.778-27.777 0-15.334-12.445-27.778-27.778-27.778h-41.667V638.9h41.667z" fill="#323233" fill-rule="evenodd"/></svg>
